X:1
T:Stand Up, Stand Up for Jesus
M:4/4
L:1/4
K:G
 D| G3/2 G/2 B G| G2 E G| D G A B| A3| D| G3/2 G/2 B G| G2 E G| D G B A|\
 G3 D| A3/2 A/2 G A| B2 B B| c B E A| G2- F D| G3/2 G/2 B G| G2 E G|\
 D G B A| G3||

